icons/reactjs.svg

<svg width="16" height="16" viewBox="0 0 16 16" fill="none" xmlns="http://www.w3.org/2000/svg">
<circle cx="8" cy="8" r="1" fill="#FBB03B"/>
<path d="M14.5 8C14.5 8.24513 14.3862 8.52048 14.094 8.81652C13.7997 9.11471 13.3491 9.40618 12.7528 9.66175C11.5619 10.1721 9.8819 10.5 8 10.5C6.1181 10.5 4.43808 10.1721 3.24721 9.66175C2.65089 9.40618 2.20026 9.11471 1.90597 8.81652C1.6138 8.52048 1.5 8.24513 1.5 8C1.5 7.75487 1.6138 7.47952 1.90597 7.18348C2.20026 6.88529 2.65089 6.59382 3.24721 6.33825C4.43808 5.82788 6.1181 5.5 8 5.5C9.8819 5.5 11.5619 5.82788 12.7528 6.33825C13.3491 6.59382 13.7997 6.88529 14.094 7.18348C14.3862 7.47952 14.5 7.75487 14.5 8Z" stroke="#FBB03B"/>
<path d="M11.25 13.6292C11.0377 13.7517 10.7424 13.7908 10.3399 13.6858C9.9345 13.5801 9.45677 13.3356 8.93728 12.9469C7.89985 12.1708 6.77589 10.8798 5.83494 9.25C4.89398 7.62022 4.33793 6.00134 4.18449 4.71484C4.10766 4.07062 4.13476 3.53463 4.24586 3.13067C4.35615 2.72963 4.53771 2.4934 4.75 2.37083C4.96229 2.24827 5.25765 2.20915 5.66011 2.31415C6.06549 2.41992 6.54323 2.66444 7.06272 3.05309C8.10015 3.82922 9.22411 5.12022 10.1651 6.75C11.106 8.37978 11.6621 9.99866 11.8155 11.2852C11.8923 11.9294 11.8652 12.4654 11.7541 12.8693C11.6438 13.2704 11.4623 13.5066 11.25 13.6292Z" stroke="#FBB03B"/>
<path d="M4.75 13.6292C4.53771 13.5066 4.35615 13.2704 4.24586 12.8693C4.13476 12.4654 4.10766 11.9294 4.18449 11.2852C4.33793 9.99866 4.89398 8.37977 5.83494 6.75C6.77589 5.12022 7.89985 3.82922 8.93728 3.05309C9.45677 2.66444 9.93451 2.41992 10.3399 2.31415C10.7424 2.20915 11.0377 2.24827 11.25 2.37083C11.4623 2.4934 11.6438 2.72963 11.7541 3.13067C11.8652 3.53463 11.8923 4.07062 11.8155 4.71484C11.6621 6.00134 11.106 7.62022 10.1651 9.25C9.22411 10.8798 8.10015 12.1708 7.06272 12.9469C6.54323 13.3356 6.06549 13.5801 5.66011 13.6858C5.25764 13.7908 4.96229 13.7517 4.75 13.6292Z" stroke="#FBB03B"/>
</svg>

<svg xmlns="http://www.w3.org/2000/svg" width="16" height="16" fill="none"><circle cx="8" cy="8" r="1" fill="#FBB03B"/><path stroke="#FBB03B" d="M14.5 8c0 .245-.114.52-.406.817-.294.298-.745.59-1.341.845-1.191.51-2.871.838-4.753.838-1.882 0-3.562-.328-4.753-.838-.596-.256-1.047-.547-1.341-.845C1.614 8.52 1.5 8.245 1.5 8s.114-.52.406-.817c.294-.298.745-.59 1.341-.845C4.438 5.828 6.118 5.5 8 5.5c1.882 0 3.562.328 4.753.838.596.256 1.047.547 1.341.845.292.297.406.572.406.817Z"/><path stroke="#FBB03B" d="M11.25 13.63c-.212.122-.508.16-.91.056-.405-.106-.883-.35-1.403-.74C7.9 12.172 6.776 10.88 5.835 9.25c-.941-1.63-1.497-3.249-1.65-4.535-.077-.644-.05-1.18.06-1.584.111-.401.293-.638.505-.76.212-.123.508-.162.91-.057.405.106.883.35 1.403.74C8.1 3.828 9.224 5.12 10.165 6.75c.941 1.63 1.497 3.249 1.65 4.535.077.644.05 1.18-.06 1.584-.111.401-.293.638-.505.76Z"/><path stroke="#FBB03B" d="M4.75 13.63c-.212-.123-.394-.36-.504-.76-.111-.405-.138-.94-.062-1.585.154-1.286.71-2.905 1.65-4.535.942-1.63 2.066-2.92 3.103-3.697.52-.389.998-.633 1.403-.739.402-.105.698-.066.91.057.212.122.394.359.504.76.111.404.138.94.062 1.584-.154 1.286-.71 2.905-1.65 4.535-.942 1.63-2.066 2.92-3.103 3.697-.52.389-.998.633-1.403.739-.402.105-.698.066-.91-.057Z"/></svg>
